X:176
T: Nachreue
N: A0213
O: Europa, Mitteleuropa, Deutschland
N: Rhaw, Bicinia 1541. Tom. I. No. 90.
R: Romanze, Ballade, Lied
M: 6/2
L: 1/4
K: F
F2 | F4F2A4F2 | A4B2c4
c2 | A4d2c4B2 | A2GFG2F4
F2 | F4F2A4F2 | A4B2c4
c2 | A4d2c4B2 | A2GFG2F4
F2 | A4A2G3AB2 | c4B2c4
c2 | c4c2d4d2 | c2BAB2A4
A2 | A4F2G4c2 | d4d2c3B
AG | F2B4A2G4 | F6-F4

